X: 2114
Q: "Strathspey."
M: C
L: 1/16
K: G
uc2 |\
vBG3G3uA vF3vGuA3uc | vBG3G3uD B,3DG,3c |\
ud2 |\
vg3ud BcdB gd3d3ue |
vg3vd (gab2) ae3e3f |\
[1 vg3ud BcdB vg3vdue3uB | ca3A3uc BG3G2 :|\
[2 gb3 dB3 ca3 cA3 | vB3ud ABcA BG3 G2 |]


